X:1
T:St. Philip and St. James, LM
T:James Langran, 1875
T:St. Philip and St. James, LM
T:Public Domain
C:James Langran, 1875
Z:Public Domain
%%score ( 1 2 ) ( 3 4 )
L:1/8
M:none
K:A
V:1 treble 
V:2 treble 
V:3 bass 
V:4 bass 
V:1
 [CE]2 | [Ec]2 [EA]2 [EF]2 [DF]2 | [DG]2 [DE]2 [CE]2 [EA]2 | E2 z B [FA]2 [FB]2 | %4
 [FG]2 [^EG]2 F2 [FA]2 | [EB]2 [Ec]2 [Ee]2 [EA]2 | [FA]2 [^DB]2 [EG]2 (Bc) | [Dd]2 [EB]2 [Ec]2 E2 | %8
 [DF]2 [DA]2 [CA]2 |] %9
V:2
 x2 | x8 | x8 | c3 ^E2 x3 | x4 F2 x2 | x8 | x6 E2 | x6 E2 | x6 |] %9
V:3
 [A,,A,]2 | [A,,E,]2 [C,A,]2 [D,A,]2 [B,,B,]2 | [E,B,]2 [E,G,]2 [A,,A,]2 [A,C]2 | %3
 A,2 [G,B,]2 [F,C]2 [B,,D]2 | [C,C]2 [C,B,]2 [F,A,]2 [F,C]2 | [G,B,]2 A,2 [C,A,]2 [C,C]2 | %6
 [^D,B,]2 [B,,B,]2 [E,B,]2 [E,G,]2 | [F,A,]2 [G,B,]2 A,2 [C,A,]2 | [D,A,]2 [D,F,]2 [A,,E,]2 |] %9
V:4
 x2 | x8 | x8 | A,2 x6 | x8 | x2 A,2 x4 | x8 | x4 A,2 x2 | x6 |] %9

